X:1
T:Title
%%score { ( 1 3 4 ) | ( 2 5 6 ) }
L:1/8
M:4/4
K:Bb
V:1 treble nm="Grand Piano"
V:3 treble 
V:4 treble 
V:2 bass 
V:5 bass 
V:6 bass 
V:1
 z4 z2[Q:1/4=100] [DF]2 | [DF]2 [_D=E]>[=DF] [Fd]2 [Fd]>[Fc] | [GB]2 [GB]>[FA] G2 E2 | %3
 E2 C>D E2 A>G |[M:3/4] F2 F>E D2 |[M:1/4] [DF]2 |[M:4/4] [DF]2 [_D=E]>[=DF] [Fd]2 [Fd]>[Ec] | %7
 [DB]2 [Ec][Fd] [Ee]2 G2 | F2 [FB]>[FA] [EG]2 [Ec]>[EB] | %9
[M:27/32] z/4 z/4 z/4 z/4 z/4 z/4 z/4 z/4 z/4 z/4 z/4 z/4 z/4 z/4 z/ c3/4 z/4 z/4 z/4 z/4 z/4 z/4 z/ | %10
[M:1/4] z2 |[M:4/4] d4- d/4 z/4 z/ z z2 | (9:8:8cB- [F,B]2- [F,B]/[K:bass] F,F,F/-[K:treble] F2 | %13
 e4- e/4 z/4 z/ z z2 | (9:8:8dc- [A,c]2- [A,c]/ A,A,F/- F2 | %15
 (9:8:8[Ff]2 [Fe]2 [Fd]/ [Ec]/-[Ec]3/2[GB]/-[GB]3/2G/ | (7:8:5F3/2A3/2.B/ c3/2 [Fe]2 | %17
 (9:8:8[Fd]2 [Fc]2 [FB]/ A/-A3/2G/-G3/2e/ |[M:7/8] d2- d/4 z/4 z/ z z z2 |] %19
V:2
 z4 z2 [B,,B,]2 | [B,,B,]2 [B,,B,]>[B,,B,] [B,,B,]2 [B,,B,]>[B,,B,] | %2
 [E,B,]2 [E,B,]>[E,B,] [E,B,E]2 [F,A,C]2 | [F,A,C]2 [F,A,]>[F,B,] [F,A,C]2 [F,CF]>[F,B,E] | %4
[M:3/4] [F,B,D]2 [F,A,D]>[F,A,C] [B,,B,]2 |[M:1/4] [B,,B,]2 | %6
[M:4/4] [B,,B,]2 [B,,B,]>[B,,B,] [B,,B,]2 [B,,B,]>[B,,B,] | [B,,B,]2 [E,G,][D,G,] [C,C]2 [E,B,E]2 | %8
 [D,B,]2 [D,B,]>[D,B,] [E,B,]2 [C,C]>[C,C] | %9
[M:27/32][K:treble] z/4 z/4 z/4 z/4 z/4 z/4 z/4 z/4 z/4 z/4 z/4 z/4 z/4 z/4 z/[K:bass] [F,A,E]3/4 z/4 z/4 z/4 z/4 z/4 z/4 z/ | %10
[M:1/4] z2 |[M:4/4] F4- F/4 z/4 z/ z z2 | (9:8:8ED- [B,,D]2- [B,,D]/ B,,B,,D/- D2 | %13
 G4- G/4 z/4 z/ z[K:treble] z2 | (9:8:8F[K:bass]E- [F,E]2- [F,E]/ F,F,[F,A,]/- [F,A,]2 | %15
 (9:8:8[D,B,]2 [C,A,]2 [B,,B,]/ [E,G,]/-[E,G,]3/2[E,B,]/-[E,B,]3/2[E,B,E]/ | %16
 [A,C]2- [A,C]/4 z/4 z/ z z4 | %17
 (9:8:8[B,,B,]2 [C,A,]2 [D,B,]/ [E,B,E]/-[E,B,E]3/2[E,B,E]/-[E,B,E]3/2[E,B,F]/ | %18
[M:7/8] [B,F]2- [B,F]/4 z/4 z/ z z z2 |] %19
V:3
 x8 | x8 | x8 | x8 |[M:3/4] x6 |[M:1/4] x2 |[M:4/4] x8 | x8 | x8 | %9
[M:27/32] A/4-A/4-A/4-A/4-A/-<A/ z/4 z/4 z/4 z/4 z/4 z/4 z/4 z/4 z/4 z/4 z/4 z/4 z/4 z/4 z/4 z/4 z/4 z/ | %10
[M:1/4] F2- |[M:4/4] F3/4 z/4 z z2 (3:2:2[Fd]3 c3 | x4[K:bass] x57/32[K:treble] x2 | %13
 z4 (5:4:4[Ge]-[B,Ge]3/2 d/- d2 | x8 | x481/60 | x8 | x481/60 |[M:7/8] z2 c3/2-c/4 z/4 [DB]3 |] %19
V:4
 x8 | x8 | x8 | x8 |[M:3/4] x6 |[M:1/4] x2 |[M:4/4] x8 | x8 | x8 | %9
[M:27/32] z/4 z/4 z/4 z/4 z/4 z/4 z/ d/4-d/4-d/4-d/4-d/4-d/4-d/-<d/[B,DB]/4-[B,DB]/4-[B,DB]/4-[B,DB]/4-[B,DB]/4-[B,DB]/-<[B,DB]/- | %10
[M:1/4] [B,DB]/4 z/4 z/ z |[M:4/4] z2 B,2- B,/4 z/4 z/ z z2 | x4[K:bass] x57/32[K:treble] x2 | %13
 z2 B,2- B,/4 z/4 z/ z z2 | x8 | x481/60 | x8 | x481/60 |[M:7/8] x7 |] %19
V:5
 x8 | x8 | x8 | x8 |[M:3/4] x6 |[M:1/4] x2 |[M:4/4] x8 | x8 | x8 | %9
[M:27/32][K:treble] [F,CF]/4-[F,CF]/4-[F,CF]/4-[F,CF]/4-[F,CF]/-<[F,CF]/[F,A,]/4-[F,A,]/4-[F,A,]/4-[F,A,]/4-[F,A,]/-<[F,A,]/[K:bass] z/4 z/4 z/4 z/4 z/4 z/4 z/4 z/4 z/4 z/ | %10
[M:1/4] D2- |[M:4/4] D3/4 z/4 z z2 (3:2:2[B,,B,]3 E3 | x8 | %13
 z4 (5:4:4[B,,B,]B,,3/2[K:treble] F/- F2 | x57/64[K:bass] x7 | x481/60 | %16
 (7:8:5F,3/2[F,CF]3/2.[F,B,F]/ [F,A,F]3/2 [C,A,]2 | x481/60 | %18
[M:7/8] F,2- [F,A,E]3/2-[F,A,E]/4 z/4 [B,,B,]3 |] %19
V:6
 x8 | x8 | x8 | x8 |[M:3/4] x6 |[M:1/4] x2 |[M:4/4] x8 | x8 | x8 | %9
[M:27/32][K:treble] z/4 z/4 z/4 z/4 z/4 z/4 z/ F/4-F/4-F/4-F/4-F/4-F/4-F/-<F/[K:bass]B,,/4-B,,/4-B,,/4-B,,/4-B,,/4-B,,/-<B,,/- | %10
[M:1/4] B,,/4 z/4 z/ z |[M:4/4] z2 B,,2- B,,/4 z/4 z/ z z2 | x8 | %13
 z2 B,,2- B,,/4 z/4 z/ z[K:treble] z2 | x57/64[K:bass] x7 | x481/60 | x8 | x481/60 |[M:7/8] x7 |] %19

